X:1
T:J. B. Dykes
T:Easter Chant
%%score { ( 1 2 ) | ( 3 4 ) }
L:1/8
Q:1/4=184
M:4/2
K:F
V:1 treble 
V:2 treble 
V:3 bass 
V:4 bass 
V:1
"^Presto" A16 | c4 d4 c8 | A16 | A4 (F2 G2) A8 | A16 | G4 d4 c4 c4 | c4 d4 c4 A4 | F4 G4 F8 | %8
 F8 F8 |] %9
V:2
 F16 | F4 F4 F8 | F16 | E4 F4 E8 | F16 | G4 F4 E4 G4 | F4 F4 F4 F4 | F4 E4 F8 | D8 C8 |] %9
V:3
 C16 | A,4 A,4 A,8 | C16 | ^C4 D4 =C8 | D14 C2 | =B,4 B,4 C4 _B,4 | A,4 B,4 A,4 C4 | A,4 B,4 A,8 | %8
 B,8 A,8 |] %9
V:4
 F,16 | F,4 D,4 F,8 | F,16 | A,4 D,4 A,,8 | D,16 | G,4 G,4 C,4 E,4 | F,4 B,,4 C,4 C,4 | %7
 D,4 C,4 F,8 | B,,8 F,,8 |] %9

